svgs/sharp-light/info.svg

<svg xmlns="http://www.w3.org/2000/svg" viewBox="0 0 192 512"><!--! Font Awesome Pro 6.6.0 by @fontawesome - https://fontawesome.com License - https://fontawesome.com/license (Commercial License) Copyright 2024 Fonticons, Inc. --><path d="M128 32l0 64L64 96l0-64 64 0zM16 160l16 0 64 0 16 0 0 16 0 272 64 0 16 0 0 32-16 0L16 480 0 480l0-32 16 0 64 0 0-256-48 0-16 0 0-32z"/></svg>

<svg xmlns="http://www.w3.org/2000/svg" viewBox="0 0 192 512"><!--! Font Awesome Pro 6.4.0 by @fontawesome - https://fontawesome.com License - https://fontawesome.com/license (Commercial License) Copyright 2023 Fonticons, Inc. --><path d="M128 32V96H64V32h64zM16 160H32 96h16v16V448h64 16v32H176 16 0V448H16 80V192H32 16V160z"/></svg>
